findly-builder/apps/searchassist/src/assets/icons/add_plus.svg

<svg width="12" height="12" viewBox="0 0 12 12" fill="none" xmlns="http://www.w3.org/2000/svg">
<path d="M6.5404 0.485115C6.51576 0.213139 6.28624 1.42632e-05 6.00674 1.42632e-05C5.7108 1.42632e-05 5.4709 0.238949 5.4709 0.533691V5.26235L0.535846 5.26015L0.487073 5.26233C0.213991 5.28687 0 5.51546 0 5.79383C0 6.08857 0.239906 6.3275 0.535846 6.3275L5.4709 6.3297V11.4663L5.47309 11.5149C5.49773 11.7869 5.72725 12 6.00674 12C6.30268 12 6.54259 11.7611 6.54259 11.4663V6.3297L11.4642 6.33193L11.5129 6.32975C11.786 6.30521 12 6.07662 12 5.79825C12 5.50351 11.7601 5.26457 11.4642 5.26457L6.54259 5.26235L6.54259 0.533691L6.5404 0.485115Z" fill="#202124"/>
</svg>

<svg width="12" height="12" fill="none" xmlns="http://www.w3.org/2000/svg"><path d="M6.54.485a.535.535 0 0 0-1.07.049v4.728L.537 5.26l-.049.002a.535.535 0 0 0 .049 1.066l4.935.002v5.136l.002.049a.535.535 0 0 0 1.07-.049V6.33l4.921.002.049-.002a.535.535 0 0 0-.049-1.065l-4.921-.003V.534L6.54.485Z" fill="#202124"/></svg>
